X: 30
T: Little Brown Jug
M:2/4
L:1/8
S:Ruth - Pioneer Western Folk Tunes (1948)
Z:AK/Fiddler's Companion
K:D
F[F/A/][F/A/] [F/A/][F/A/][F/A/][F/A/]|G[GB][G2B2]|
A[E/c/][E/c/] [E/c/][E/c/][E/c/][E/c/]|A[Fd] [d2f2]|
F[F/A/][F/A/] [F/A/][F/A/][F/A/][F/A/]|G[GB][G2B2]|
A[Ec] c/B/c/d/|e[Fd] [F2d2]||f/g/a/f/ d2|fe g2|gc c/d/e/f/|
ed f2|f/g/a/f/ d2|fe g2|{a}bc c/d/e/f/|ed d2||

%%sep 1 1 500
